X:20
T:N\"ackens Polska
R:polska J
H:efter Magnus Olsson, Bolln\"as
A:H\"alsingland
Z:id:hn-jp-20
M:3/4
L:1/16
K:Dm
D3F A4 ^c3d | e2ef d2de ^c2^cd | e2ef ded=B =c4 | A_BAG FEFG A2F2 |
F2GF ED^CD E2A,2 | D3F A4 ^c3d | e2ef d2de ^c2^cd | e2ef ded=B =c4 |
A_BAG FEFG A2F2 | ED^CE D8 :||: F3A A2c2 c3A | A2G2 AGFG A2FF |
FEFG AGAB c2A2 | A2G2 (3GAGFG A4 | F3A A2c2 c3A | A2G2 AGFG A2FF |
FEFG AGAB c2A2 | A2G2 (3GAGFG A4 | FGFE D2D2 d3A | ^cdef ed^ce d2A2 |
A_BAG FEFG A2F2 | ED^CE D8 :|
